images_elementary_svg/cmd/sc_setoptimalcolumnwidth.svg

<svg viewBox="0 0 16 16" xmlns="http://www.w3.org/2000/svg" xmlns:xlink="http://www.w3.org/1999/xlink"><linearGradient id="a" gradientTransform="matrix(.59436 0 0 .5999 -19.265 -.033)" gradientUnits="userSpaceOnUse" x1="25.132" x2="25.132" y1="15.5" y2="48.396"><stop offset="0" stop-color="#fafafa"/><stop offset="1" stop-color="#e2e1de"/></linearGradient><linearGradient id="b" gradientTransform="matrix(.98704 0 0 .88413 .093 -1.35)" gradientUnits="userSpaceOnUse" x1="7" x2="7" y1="2" y2="9"><stop offset="0" stop-color="#fff"/><stop offset=".5" stop-color="#fff" stop-opacity=".235"/><stop offset=".951" stop-color="#fff" stop-opacity=".157"/><stop offset="1" stop-color="#fff" stop-opacity=".392"/></linearGradient><linearGradient id="c" gradientTransform="matrix(.94103 0 0 1.027 .46 -2.56)" gradientUnits="userSpaceOnUse" x1="7" x2="7" y1="-4" y2="17"><stop offset="0" stop-color="#cdf87e"/><stop offset=".262" stop-color="#a2e34f"/><stop offset=".661" stop-color="#68b723"/><stop offset="1" stop-color="#1d7e0d"/></linearGradient><g transform="translate(0 2)"><rect fill="url(#a)" height="14" rx=".424" ry=".491" width="4" x="6" y="-1"/><path d="m5.502-1.998c-.276 0-.5.224-.5.5l.002 14.998c0 .276.224.5.5.5h4.996c.276 0 .5-.224.5-.5l-.002-10.5h.002v-1h-.002v-3.498c0-.276-.224-.5-.5-.5zm.498.998h4v3h-4zm0 4h4v2h-3.996v1h3.996v3h-3.996v1h3.996l.002 3.002h-4z" opacity=".32"/></g><path d="m5.502.002c-.276 0-.51.224-.5.5v3.5h.998v-3.002h4v3.002h.998v-3.5c0-.276-.224-.5-.5-.5zm.5 3v1zm3.996 0v1z" fill="#126400" opacity=".4"/><path d="m6.01.992 3.99.008v2.602l-3.99-.008z" fill="url(#c)"/><path d="m5.5.52v3.082l.51-.008-.01-2.594h4v2.602h.518v-3.08z" fill="url(#b)"/><path d="m13.775 5.347c-.16-.017-.317.062-.4.213l-3.485 6.416-2.243-1.793c-.2-.11-.448-.04-.558.162l-1.006 1.298c-.11.2-.036.452.164.56 0 0 4.093 3.402 4.098 3.404.047.026.096.04.146.045.162.02.33-.056.412-.21l4.702-8.654c.11-.2.036-.45-.164-.56l-1.508-.833c-.05-.028-.106-.043-.16-.048z" fill="#9cde4a" stroke="#5ca12a" stroke-linecap="round" stroke-linejoin="round" stroke-width=".689"/><path d="m5 3.632h5.998v.368h-5.998z" fill="#0c4400" fill-opacity=".592" opacity=".32"/></svg>

<svg xmlns="http://www.w3.org/2000/svg" xmlns:xlink="http://www.w3.org/1999/xlink" viewBox="0 0 16 16"><defs><linearGradient gradientTransform="matrix(1.38317 0 0 1.41442 -36.243 -3.873)" id="b" gradientUnits="userSpaceOnUse" x1="8.295" x2="8.295" y1="-4.284" y2="16.85"><stop offset="0" stop-color="#cdf87e"/><stop offset=".262" stop-color="#a2e34f"/><stop offset=".661" stop-color="#68b723"/><stop offset="1" stop-color="#1d7e0d"/></linearGradient><linearGradient id="c" gradientTransform="matrix(.59436 0 0 .5999 -19.265 -.033)" gradientUnits="userSpaceOnUse" x1="25.132" x2="25.132" y1="15.5" y2="48.396"><stop offset="0" stop-color="#fafafa"/><stop offset="1" stop-color="#e2e1de"/></linearGradient><linearGradient id="a"><stop offset="0" stop-color="#fff"/><stop offset=".5" stop-color="#fff" stop-opacity=".235"/><stop offset=".951" stop-color="#fff" stop-opacity=".157"/><stop offset="1" stop-color="#fff" stop-opacity=".392"/></linearGradient><linearGradient xlink:href="#a" id="e" x1="7" y1="2" x2="7" y2="9" gradientUnits="userSpaceOnUse" gradientTransform="matrix(.98704 0 0 .88413 .093 -1.35)"/><linearGradient xlink:href="#b" id="d" x1="7" y1="-4" x2="7" y2="17" gradientUnits="userSpaceOnUse" gradientTransform="matrix(.94103 0 0 1.027 .46 -2.56)"/></defs><g transform="translate(0 2)"><rect height="14" rx=".424" ry=".491" width="4" x="6" y="-1" fill="url(#c)"/><path d="M5.502-1.998c-.276 0-.5.224-.5.5L5.004 13.5c0 .276.224.5.5.5H10.5c.276 0 .5-.224.5-.5L10.998 3H11V2h-.002v-3.498c0-.276-.224-.5-.5-.5zM6-1h4v3H6zm0 4h4v2H6.004v1H10v3H6.004v1H10l.002 3.002h-4z" opacity=".32"/></g><path d="M5.502.002c-.276 0-.51.224-.5.5v3.5H6V1h4v3.002h.998v-3.5c0-.276-.224-.5-.5-.5zm.5 3v1zm3.996 0v1z" opacity=".4" fill="#126400"/><path d="M6.01.992L10 1v2.602l-3.99-.008z" fill="url(#d)"/><path d="M5.5.52v3.082l.51-.008L6 1h4v2.602h.518V.522z" fill="url(#e)"/><path d="M13.775 5.347c-.16-.017-.317.062-.4.213L9.89 11.976l-2.243-1.793c-.2-.11-.448-.04-.558.162l-1.006 1.298c-.11.2-.036.452.164.56 0 0 4.093 3.402 4.098 3.404.047.026.096.04.146.045.162.02.33-.056.412-.21l4.702-8.654c.11-.2.036-.45-.164-.56l-1.508-.833c-.05-.028-.106-.043-.16-.048z" fill="#9cde4a" stroke="#5ca12a" stroke-width=".689" stroke-linecap="round" stroke-linejoin="round"/><path opacity=".32" fill="#0c4400" fill-opacity=".592" d="M5 3.632h5.998V4H5z"/></svg>
